svgs/microsoft_outlook.svg

<svg width="192" height="192" viewBox="0 0 192 192" fill="none" xmlns="http://www.w3.org/2000/svg"><rect x="22" y="62" width="68" height="68" rx="4" stroke="#000" stroke-width="12" stroke-linejoin="round"/><path fill-rule="evenodd" clip-rule="evenodd" d="M50 130v30c0 5.523 4.477 10 10 10h106c5.523 0 10-4.477 10-10v-60a6 6 0 0 0-8.937-5.232L113 125.12l-23-12.912v13.762l20.063 11.263L147.056 158H62v-28H50Zm114 23.751L125.257 132 164 110.249v43.502Z" fill="#000"/><path d="M158 104V30a4 4 0 0 0-4-4H72a4 4 0 0 0-4 4v32.5" stroke="#000" stroke-width="12" stroke-linejoin="round"/><circle cx="56" cy="96" r="14" stroke="#000" stroke-width="12"/></svg>

<?xml version="1.0" encoding="UTF-8" standalone="no"?><svg xmlns:android="http://schemas.android.com/apk/res/android" height="192" width="192" xmlns="http://www.w3.org/2000/svg">
  <path d="M26,62L86,62A4,4 0,0 1,90 66L90,126A4,4 0,0 1,86 130L26,130A4,4 0,0 1,22 126L22,66A4,4 0,0 1,26 62z" fill="#000000" fill-opacity="0.0" stroke="#000000" stroke-linejoin="round" stroke-width="12"/>
  <path d="M50,130V160C50,165.523 54.477,170 60,170H166C171.523,170 176,165.523 176,160V100C176,97.869 174.87,95.898 173.031,94.822C171.192,93.746 168.921,93.725 167.063,94.768L113,125.119L90,112.207V125.969L110.063,137.232L147.056,158H62V130H50ZM164,153.751L125.257,132L164,110.249V153.751Z" fill="#000000" fill-rule="evenOdd"/>
  <path d="M158,104V30C158,27.791 156.209,26 154,26H72C69.791,26 68,27.791 68,30V62.5" fill="#000000" fill-opacity="0.0" stroke="#000000" stroke-linejoin="round" stroke-width="12"/>
  <path d="M56,96m-14,0a14,14 0,1 1,28 0a14,14 0,1 1,-28 0" fill="#000000" fill-opacity="0.0" stroke="#000000" stroke-width="12"/>
</svg>
